streamdeck-plugin/com.jetbrains.ide.sdPlugin/icons/actions/openActionBrowser.svg

<!-- Copyright 2000-2022 JetBrains s.r.o. and contributors. Use of this source code is governed by the Apache 2.0 license. -->
<svg width="20" height="20" viewBox="0 0 20 20" fill="none" xmlns="http://www.w3.org/2000/svg">
<circle cx="10" cy="10" r="8" stroke="#EFEFEF" stroke-width="1.5"/>
<path d="M13.25 10C13.25 12.3255 12.7844 14.4013 12.0974 15.8693C11.7533 16.6043 11.3679 17.1568 10.9857 17.5153C10.6037 17.8736 10.2693 18 10 18C9.73072 18 9.39632 17.8736 9.01435 17.5153C8.6321 17.1568 8.24667 16.6043 7.90263 15.8693C7.21558 14.4013 6.75 12.3255 6.75 10C6.75 7.67448 7.21558 5.59867 7.90263 4.13075C8.24667 3.39568 8.6321 2.84318 9.01435 2.48466C9.39632 2.12639 9.73072 2 10 2C10.2693 2 10.6037 2.12639 10.9857 2.48466C11.3679 2.84318 11.7533 3.39568 12.0974 4.13075C12.7844 5.59867 13.25 7.67448 13.25 10Z" stroke="#EFEFEF" stroke-width="1.5"/>
<path d="M17.5 7.25H2.44443" stroke="#EFEFEF" stroke-width="1.5"/>
<path d="M17.5 12.75H2.5" stroke="#EFEFEF" stroke-width="1.5"/>
</svg>

<svg clip-rule="evenodd" fill-rule="evenodd" viewBox="0 0 20 20" xmlns="http://www.w3.org/2000/svg"><g fill="none" stroke="#efefef" stroke-width="1.5"><circle cx="10" cy="10" r="8"/><path d="m13.25 10c0 2.326-.466 4.401-1.153 5.869-.344.735-.729 1.288-1.111 1.646-.382.359-.717.485-.986.485s-.604-.126-.986-.485c-.382-.358-.767-.911-1.111-1.646-.687-1.468-1.153-3.543-1.153-5.869s.466-4.401 1.153-5.869c.344-.735.729-1.288 1.111-1.646.382-.359.717-.485.986-.485s.604.126.986.485c.382.358.767.911 1.111 1.646.687 1.468 1.153 3.543 1.153 5.869z"/><path d="m17.5 7.25h-15.056"/><path d="m17.5 12.75h-15"/></g></svg>
